X:24
T:All the Way to Galway
M:4/4
R:reel
Q:1/2=120
L:1/4
K:D
"D"A>BAG|"D"FAd2|"Em"EF G(3F/2G/2F/2|"A"EFG^G|
"D"A>BAG|"D"FAd>d|"A"cAGE|"D"D2D2:|
|:"D"d>efd|"A"cA A>c|"G"BG G/2A/2B|"A"BA A2|
"D"d>efd|"A"ca a>a|"G"bage|"D"d2 "A7"d2:|
%%newpage
